X:1
T:Thine, Jesus, Thine
T:Thine, Jesus, Thine
T:Philip Paul Bliss, 1871
T:Albert Midlane, 1861
T:Public Domain Courtesy of the Cyber Hymnal™
C:Philip Paul Bliss, 1871
Z:Public Domain
Z:Courtesy of the Cyber Hymnal™
%%score ( 1 2 ) ( 3 4 )
L:1/8
Q:1/4=115
M:4/4
K:F
V:1 treble 
V:2 treble 
V:3 bass 
V:4 bass 
V:1
 [Fc]4 [FA]2 [EG]2 | F6 F2 | [EG]2 [EG]2 [FA]2 [GB]2 | [FA]6 ([FA][GB]) | [Ac]2 [Ac]2 [Ac]2 A2 | %5
w: 1.~Thine, Je- sus,|Thine, No|more this heart of|mine Shall *|seek its joy a-|
w: 2.~Thine, Thine a-|lone, My|joy, my hope, my|crown; Now *|earth- ly things may|
w: 3.~Thine, ev- er|Thine, For-|ev- er to re-|cline On *|love e- ter- nal,|
w: 4.~Thine, Je- sus,|Thine, Soon|in Thy crown to|shine, When *|from the glo- ry|
 [DB]2 [_Ec]2 [Fd]2 [Fd]2 | [Fc]2 [Fc]2 [Fc]2 [CA]2 | [CG]2 [CG]2 [CG]2 [^CA]2 | [DF]4 [EG]4 | %9
w: part from Thee; The|world is cru- ci-|fied to me, And|I am|
w: fade and die, They|charm my soul no|more, for I Am|Thine a-|
w: fixed and sure, Yes,|I am Thine for-|ev- er- more, Lord|Je- sus,|
w: Thou shalt come And|with Thy saints shall|take me home, Lord|Je- sus,|
 (A2 c4) [Fc]2 | [FA]4 [EG]4 | F6 z2 |] %12
w: Thine, * And|I am|Thine.|
w: lone, * Am|Thine a-|lone.|
w: Thine, * Lord|Je- sus,|Thine.|
w: come, * Lord|Je- sus,|come.|
V:2
 x8 | F6 F2 | x8 | x8 | x6 (F_E) | x8 | x8 | x8 | x8 | F6 x2 | x8 | F6 x2 |] %12
V:3
 [F,A,]4 [C,C]2 [C,B,]2 | [F,A,]6 [F,A,]2 | [C,C]2 [C,C]2 [C,C]2 [C,C]2 | [F,C]6 [F,C]2 | %4
 [F,C]2 [F,C]2 [F,F]2 [F,C]2 | [B,,B,]2 [B,,B,]2 [B,,B,]2 [B,,B,]2 | [F,A,]2 [F,A,]2 [F,A,]2 F,2 | %7
 [C,E,]2 [C,E,]2 [C,E,]2 [A,,E,]2 | (F,2 A,2) [C,C]4 | (C2 A,4) [A,,C]2 | [C,C]4 [C,B,]4 | %11
 [F,A,]6 z2 |] %12
V:4
 x8 | x8 | x8 | x8 | x8 | x8 | x6 F,2 | x8 | D,4 x4 | F,6 x2 | x8 | x8 |] %12

